X:1
T:070 - Nome Adorável
T:Letra: (1a., 2a. e 3a. estrofes) John Newton (1725-1807)
T:(4a. estrofe) Bernard de Clairvaux (1091-1153)
T:Trad.: Henry Maxwell Wright (1849-1931)
T:Música: Friederich Silcher (1789-1860)
M:6/8
L:1/8
K:Bb
V:1
F | ("Bb"F>G)F (F>G)F | F2 B F2 D | D2D (FE)D | "F"C3- C2 F | ("Bb"F>G)F (F>G)F | F2 B d2 c | "Bb/F"B2 B ("F7"AG)A | "Bb"B3- B2 |]
w: 1.~Mui do_ce so_aao co-ra-ção Do po-bre pe_ca-dor_ O No_me que_ lhe dá per-dão   Je-sus, o Sal_va-dor._
w: 2.~Je-sus,_ meu Rei,_ meu Sal-va-dor, Meu ter-noe bom_ Pas-tor,_ Meu Ad_vo-ga_do, meu Se-nhor, Meu for-te Re_den-tor._
w: 3.~Ben-di_too No_me de Je-sus, Em Ti es-pe_ra-rei;_ Tu, que_ mor-res_te so-brea cruz, Em Ti con-fi_a-rei._  
w: 4.~Je-sus,_ é só_ pen-sar em Ti Mi-nhaa-fli-ção_ des-faz;_ Eo ver_te bem_ me-lhor se-rá; É des-can-sar_ em paz._
W: 
W:
W: 1. Mui doce soa ao coração
W: Do pobre pecador
W: O Nome que lhe dá perdão - 
W: Jesus, o Salvador.
W: 
W: 2. Jesus, meu Rei, meu Salvador,
W: Meu terno e bom Pastor,
W: Meu Advogado, meu Senhor,
W: Meu forte Redentor.
W: 
W: 
W: 
W: 3. Bendito o Nome de Jesus,
W: Em Ti esperarei;
W: Tu, que morreste sobre a cruz,
W: Em Ti confiarei.
W: 
W: 4. Jesus, é só pensar em Ti
W: Minha aflição desfaz;
W: E o ver-te bem melhor será;
W: É descansar em paz.
W:         
W: 





